X: 137
T: REEL: Jenny's Wedding
C: C: Trad.; S: Planxty
C: Set Leaders: Sophie, Anton, Tania
Z: Anton Zille ed.; Owen H at The Session
N: https://thesession.org/members/26966/sets/99412
R: Reel
M: 4/4
L: 1/8
Q: 1/2=100
K: Dmaj
|:D2 F/E/D AD F/E/D|Adde fded|cAAB =c3d|eaag edcd|
D2FA dfed|cAAB =cdeg|fdec d2cA|B/c/d AG FDD2:||
|:d2fd adfd|ecAB cdec|d2fd adfd|cd eg fddc|
d2fd adfd|cd ef g2fg|af ge d2cA|B/c/d AG FD D2:||

